img/place_form-option2.svg

<svg width="20" height="20" viewBox="0 0 20 20" fill="none" xmlns="http://www.w3.org/2000/svg">
<path d="M9.98381 9.99795H9.98799L10.0402 10C12.0859 10 13.75 8.31763 13.75 6.24981C13.75 4.18359 12.0883 2.50256 10.0204 2.50256H10.0159L9.95944 2.5C7.91376 2.5 6.25 4.18237 6.25 6.2502C6.25025 8.31681 7.9123 9.99842 9.98379 9.99809L9.98381 9.99795ZM9.94348 3.44939L10.0405 3.44977C11.5675 3.44977 12.8103 4.70572 12.8103 6.24948C12.8103 7.79338 11.5673 9.04956 10.0405 9.04956V9.04969L9.95958 9.04956C8.4326 9.04956 7.1903 7.79338 7.18994 6.24948C7.18994 4.70572 8.43247 3.4499 9.94348 3.44941L9.94348 3.44939Z" fill="#FC6733"/>
<path d="M13.9748 10.6958C13.6898 10.6047 13.4169 10.561 13.1399 10.561H6.85917C6.58673 10.561 6.30636 10.6064 6.02535 10.6958C5.03845 11.0108 4.375 11.8459 4.375 12.7746V17.5002H15.6239L15.625 12.775C15.6253 11.8464 14.9623 11.0109 13.9748 10.6958ZM14.4495 16.4534H5.54975V12.775C5.54975 12.2873 5.89985 11.8477 6.42065 11.6816C6.57613 11.6327 6.72036 11.6084 6.86047 11.6084L13.1412 11.6083C13.2811 11.6083 13.4246 11.6323 13.58 11.6815C14.1015 11.8477 14.4508 12.2866 14.4499 12.7749L14.4495 16.4534Z" fill="#FC6733"/>
</svg>

<svg width="20" height="20" viewBox="0 0 20 20" fill="none" xmlns="http://www.w3.org/2000/svg"><path d="M9.984 9.998h.004l.052.002c2.046 0 3.71-1.682 3.71-3.75a3.735 3.735 0 0 0-3.73-3.747h-.004L9.959 2.5C7.914 2.5 6.25 4.182 6.25 6.25a3.737 3.737 0 0 0 3.734 3.748zm-.04-6.549h.096c1.528 0 2.77 1.257 2.77 2.8 0 1.544-1.243 2.8-2.77 2.8h-.08c-1.527 0-2.77-1.256-2.77-2.8 0-1.543 1.242-2.8 2.753-2.8zm4.031 7.247a2.705 2.705 0 0 0-.835-.135H6.86c-.273 0-.554.045-.835.135-.987.315-1.65 1.15-1.65 2.079V17.5h11.249l.001-4.725c0-.929-.663-1.764-1.65-2.08zm.475 5.757h-8.9v-3.678c0-.488.35-.927.87-1.093.156-.05.3-.074.44-.074h6.281c.14 0 .284.024.439.073.521.167.87.606.87 1.094v3.678z" fill="#FC6733"/></svg>
